_uploads/logo-duke-duck.svg

<svg width="101" height="22" viewBox="0 0 101 22" fill="none" xmlns="http://www.w3.org/2000/svg">
<g clip-path="url(#clip0)">
<path fill-rule="evenodd" clip-rule="evenodd" d="M17.8557 18.4875C17.3213 19.0296 16.5403 19.5094 15.206 19.5094C13.2964 19.5094 11.8583 18.1542 11.8583 15.9645V10.3774H15.0829V15.4644C15.0829 16.1111 15.4321 16.8823 16.3767 16.8823C17.1782 16.8823 17.6504 16.2153 17.6504 15.5063V10.3774H20.8542V19.2176H20.1362C19.3202 19.2175 18.5241 18.9626 17.8557 18.4875ZM32.0579 10.3786H28.3286L25.6859 13.4213V10.3774H22.4899V19.0944H25.6859V15.5175L28.3086 19.0944H32.3036L28.6157 14.3461L32.0579 10.3786ZM35.6489 13.3478H38.5076C38.4654 12.7563 37.9474 12.1046 37.0784 12.1046C36.1253 12.1046 35.7544 12.7986 35.6489 13.3478ZM40.4462 16.2779L41.6034 18.2841C40.7197 19.0445 39.015 19.5094 37.5217 19.5094C34.5972 19.5094 32.3036 17.3551 32.3036 14.7359C32.3036 11.9049 34.4921 9.96228 37.0797 9.96228C39.52 9.96228 41.9608 11.7422 41.6876 15.2278H35.5438C35.6489 16.5332 36.7857 16.9749 37.9633 16.9749C38.9312 16.9749 39.9203 16.6154 40.4462 16.2775V16.2779ZM76.7383 18.4875C76.2039 19.0296 75.4228 19.5094 74.0886 19.5094C72.1786 19.5094 70.7409 18.1542 70.7409 15.9645V10.3774H73.9655V15.4644C73.9655 16.1111 74.3143 16.8823 75.2589 16.8823C76.0603 16.8823 76.5326 16.2153 76.5326 15.5063V10.3774H79.7368V19.2176H79.0188C78.2028 19.2175 77.4067 18.9626 76.7383 18.4875ZM88.0086 16.0874L89.4672 17.9885C88.4878 19.0869 87.1331 19.5094 85.8614 19.5094C83.152 19.5094 80.9635 17.2493 80.9635 14.7359C80.9635 12.0108 83.152 9.96228 85.8614 9.96228C87.3204 9.96228 88.6964 10.6381 89.5506 11.5467L87.9873 13.5952C87.6749 13.2357 87.0493 12.6023 86.2577 12.6023C85.2783 12.6023 84.236 13.2573 84.236 14.7359C84.236 16.214 85.3613 16.869 86.2372 16.869C86.8825 16.869 87.5707 16.51 88.0086 16.0874ZM100.754 10.3786H97.0254L94.3818 13.4213V10.3774H91.1862V19.0944H94.3818V15.5175L97.005 19.0944H101L97.312 14.3461L100.754 10.3786Z" fill="black"/>
<path fill-rule="evenodd" clip-rule="evenodd" d="M50.7311 10.616H50.6493C50.5969 10.616 50.545 10.6189 50.4931 10.6202C50.1705 10.5972 49.8685 10.4513 49.6476 10.2116C49.4268 9.97186 49.3034 9.65621 49.3023 9.328C49.3033 8.98348 49.4389 8.65343 49.6793 8.41024C49.9197 8.16706 50.2453 8.03061 50.5847 8.03083C50.9241 8.03061 51.2497 8.16704 51.4902 8.41022C51.7307 8.65339 51.8663 8.98344 51.8674 9.328C51.8663 9.64679 51.7499 9.95408 51.5404 10.1915C51.3308 10.429 51.0427 10.58 50.7306 10.616H50.7311ZM56.1744 17.7943L56.6259 17.2634C56.8647 16.9818 57.0465 16.6553 57.1609 16.3023C57.2752 15.9493 57.3198 15.5769 57.2921 15.2065C57.2644 14.836 57.165 14.4747 56.9995 14.1433C56.834 13.8118 56.6057 13.5168 56.3278 13.2751L56.1908 13.1556L54.2624 15.4249L52.4223 13.1444C53.8195 12.4545 54.7845 11.0037 54.7845 9.328C54.7845 8.46045 54.5257 7.65309 54.082 6.9794C52.5147 6.0446 49.3596 5.92091 49.3596 5.92091H53.7848C54.4022 5.92091 54.9023 5.41449 54.9023 4.79019H53.3607V0H48.0797V4.79019H47.5947C47.2988 4.78975 47.0148 4.9086 46.8052 5.12063C46.5956 5.33266 46.4774 5.6205 46.4768 5.92091H48.0817C47.3459 6.47408 46.8082 7.25626 46.5508 8.1483C46.2167 8.45091 45.3069 9.12377 43.668 9.31762C43.5261 9.33423 43.421 9.40811 43.372 9.52517C43.3155 9.65966 43.347 9.83608 43.4521 9.97513C43.5977 10.1686 43.8631 10.3234 44.2617 10.4483C44.7545 10.6032 45.4672 10.6368 46.1366 10.6368C46.2911 10.6368 46.442 10.6347 46.5884 10.6326C46.7218 11.0486 46.9181 11.441 47.1703 11.7957C46.8581 12.0218 46.5656 12.2747 46.296 12.5516C45.19 13.6906 44.5942 15.1003 44.6191 16.5224C44.6723 19.5426 47.1462 22 50.1336 22C51.2786 22 52.1827 21.6364 52.9751 21.0781C52.6276 19.5227 52.0028 18.5668 51.7423 18.2185C51.1817 18.7303 50.6988 18.9935 50.1124 18.9881C48.7957 18.974 47.6933 17.9271 47.6025 16.6046C47.5767 16.2526 47.6234 15.899 47.7398 15.5663C47.8562 15.2337 48.0397 14.9294 48.2784 14.6728C48.48 14.454 48.7949 14.2382 49.1416 14.0592L54.6136 20.8377C54.8897 21.1799 55.2375 21.4554 55.6316 21.6441C56.0257 21.8328 56.4563 21.93 56.8921 21.9286C57.5643 21.9286 58.2214 21.6928 58.7419 21.2645L58.8826 21.1491L56.1744 17.7938V17.7943Z" fill="black"/>
<path fill-rule="evenodd" clip-rule="evenodd" d="M4.66399 16.7719C3.59674 16.7719 2.73191 15.8446 2.73191 14.7006C2.73191 13.5574 3.59674 12.6301 4.66399 12.6301C5.73124 12.6301 6.59649 13.5574 6.59649 14.701C6.59649 15.8446 5.73124 16.7723 4.66399 16.7723V16.7719ZM6.63492 4.98114V10.7119C5.96432 10.2367 5.16776 9.95978 4.31233 9.95978C1.93127 9.95978 0 12.0975 0 14.7346C0 17.3717 1.93086 19.5094 4.31274 19.5094C5.34441 19.5094 6.29103 19.1076 7.0332 18.4385C7.78496 18.9413 8.66529 19.2097 9.56556 19.2106H9.81376V4.98114H6.63451H6.63492ZM63.9555 16.7719C62.8882 16.7719 62.0234 15.8446 62.0234 14.7006C62.0234 13.5574 62.8882 12.6301 63.9555 12.6301C65.0227 12.6301 65.8876 13.5574 65.8876 14.701C65.8876 15.8446 65.0227 16.7723 63.9555 16.7723V16.7719ZM65.9264 4.98114V10.7119C65.2558 10.2367 64.4593 9.95978 63.6038 9.95978C61.2224 9.95978 59.2915 12.0975 59.2915 14.7346C59.2915 17.3717 61.2224 19.5094 63.6038 19.5094C64.6359 19.5094 65.5825 19.1076 66.3247 18.4385C67.0764 18.9413 67.9568 19.2097 68.8571 19.2106H69.1053V4.98114H65.926H65.9264Z" fill="black"/>
</g>
<defs>
<clipPath id="clip0">
<rect width="101" height="22" fill="white"/>
</clipPath>
</defs>
</svg>

<svg width="101" height="22" fill="none" xmlns="http://www.w3.org/2000/svg"><g clip-path="url(#clip0)"><path fill-rule="evenodd" clip-rule="evenodd" d="M17.856 18.488c-.535.542-1.316 1.021-2.65 1.021-1.91 0-3.348-1.355-3.348-3.545v-5.587h3.225v5.087c0 .647.35 1.418 1.294 1.418.801 0 1.273-.667 1.273-1.376v-5.129h3.204v8.84h-.718a3.936 3.936 0 0 1-2.28-.73zm14.202-8.11h-3.73l-2.642 3.043v-3.044H22.49v8.717h3.196v-3.577l2.623 3.577h3.995l-3.688-4.748 3.442-3.967zm3.59 2.97h2.86c-.043-.592-.56-1.243-1.43-1.243-.953 0-1.324.694-1.43 1.243zm4.798 2.93l1.157 2.006c-.883.76-2.588 1.225-4.081 1.225-2.925 0-5.218-2.154-5.218-4.773 0-2.831 2.188-4.774 4.776-4.774 2.44 0 4.88 1.78 4.608 5.266h-6.144c.105 1.305 1.242 1.747 2.42 1.747.967 0 1.956-.36 2.482-.698zm36.292 2.21c-.534.542-1.315 1.021-2.65 1.021-1.91 0-3.347-1.355-3.347-3.545v-5.587h3.225v5.087c0 .647.348 1.418 1.293 1.418.801 0 1.274-.667 1.274-1.376v-5.129h3.204v8.84h-.718a3.936 3.936 0 0 1-2.28-.73zm11.27-2.4l1.46 1.9c-.98 1.099-2.335 1.521-3.607 1.521-2.709 0-4.898-2.26-4.898-4.773 0-2.725 2.189-4.774 4.898-4.774 1.46 0 2.835.676 3.69 1.585l-1.564 2.048c-.312-.36-.938-.993-1.73-.993-.979 0-2.021.655-2.021 2.134 0 1.478 1.125 2.133 2.001 2.133.645 0 1.334-.359 1.772-.782zm12.746-5.71h-3.729l-2.643 3.043v-3.044h-3.196v8.717h3.196v-3.577l2.623 3.577H101l-3.688-4.748 3.442-3.967zm-50.023.238h-.082c-.052 0-.104.003-.156.004a1.273 1.273 0 0 1-.845-.408 1.311 1.311 0 0 1-.346-.884c.001-.345.137-.675.377-.918a1.272 1.272 0 0 1 1.811 0c.24.243.376.573.377.918a1.312 1.312 0 0 1-.327.864c-.21.237-.497.388-.81.424h.001zm5.443 7.178l.452-.53a2.839 2.839 0 0 0 .666-2.057A2.857 2.857 0 0 0 57 14.143a2.82 2.82 0 0 0-.671-.868l-.137-.12-1.929 2.27-1.84-2.28a4.253 4.253 0 0 0 2.363-3.817c0-.868-.26-1.675-.703-2.349-1.567-.934-4.722-1.058-4.722-1.058h4.425c.617 0 1.117-.507 1.117-1.13h-1.541V0H48.08v4.79h-.485c-.296 0-.58.119-.79.33-.21.213-.328.5-.328.8h1.605a4.264 4.264 0 0 0-1.531 2.228c-.334.303-1.244.976-2.883 1.17-.142.016-.247.09-.296.207-.056.135-.025.311.08.45.146.194.411.348.81.473.492.155 1.205.189 1.875.189.154 0 .305-.002.451-.004.134.416.33.808.582 1.163a6.73 6.73 0 0 0-.874.756c-1.106 1.139-1.702 2.548-1.677 3.97.053 3.02 2.527 5.478 5.515 5.478 1.145 0 2.049-.364 2.841-.922-.347-1.555-.972-2.511-1.233-2.86-.56.512-1.043.776-1.63.77-1.316-.014-2.419-1.06-2.51-2.383a2.575 2.575 0 0 1 .676-1.932c.202-.219.517-.435.864-.614l5.472 6.779a2.94 2.94 0 0 0 1.018.806 2.919 2.919 0 0 0 3.11-.38l.14-.115-2.708-3.355zm-51.51-1.022c-1.067 0-1.932-.927-1.932-2.071 0-1.144.865-2.07 1.932-2.07s1.932.926 1.932 2.07c0 1.144-.865 2.071-1.932 2.071zm1.97-11.79v5.73a3.998 3.998 0 0 0-2.322-.752C1.932 9.96 0 12.097 0 14.735c0 2.637 1.93 4.774 4.313 4.774 1.031 0 1.978-.401 2.72-1.07a4.562 4.562 0 0 0 2.533.772h.248V4.98h-3.18zm57.322 11.79c-1.068 0-1.933-.927-1.933-2.071 0-1.144.865-2.07 1.932-2.07 1.068 0 1.933.926 1.933 2.07 0 1.144-.865 2.071-1.933 2.071zm1.97-11.79v5.73a3.998 3.998 0 0 0-2.322-.752c-2.382 0-4.313 2.137-4.313 4.775 0 2.637 1.931 4.774 4.313 4.774 1.032 0 1.978-.401 2.72-1.07a4.562 4.562 0 0 0 2.533.772h.248V4.98h-3.179z" fill="#000"/></g><defs><clipPath id="clip0"><path fill="#fff" d="M0 0H101V22H0z"/></clipPath></defs></svg>
